X: 1264
T: Beulah Land Polka Mazurka
B: australian traditional tunes wiki
M:3/4
L:1/8
R: Mazurka
Q: 1/4=100
K:G
V:1 
D2|:"G"B>BB2A2|G>GG2D2|"D7"c>cc2B2|A>AA2D2|"G"B>BB2c2|d>dd2B2|"D7"A<dc2F2|1"G"A>GG2D2:|2"G"A>GG3zd||
|:"D7"A>AA2d2|"G"B>BB2d2|"D7"e>dc2A2|"G"d>cB2-B>B|"A7"A>AA2B2|"D7"c>cc2d2|"G"A<dc2F2|1A>GG3zd:|2A>GG2||
% abcbook-tune_id 6342d53adb666b57439f2a53


% abcbook-boost 0
% abcbook-tablature 
% abcbook-transpose 
% abcbook-lastupdated 1665324356635
% abcbook-soundfonts 
% abcbook-repeats 1
% NFF Book 2022
% Bush Traditions recording played by Ray Mulligan

